X:8543
T:Kilfenora Jig, The
R:jig
H:Nearly always followed by #310.
H:Related to reel#486 (The Chorus Reel)
D:Arcady: Many Happy Returns
D:Johnstons
D:Gerry O'Connor
Z:id:hn-jig-239
M:6/8
K:D
A2D FED|A2D FED|A2D FED|dce dcB|
A2D FED|A2D FED|EDE =cAF|1 ~G3 GFG:|2 ~G3 GAG||
|:F2d dAF|AFA BAG|F2d dAF|~A3 BAG|
F2d dAF|ABA FED|~E3 =cAF|1 ~G3 GAG:|2 ~G3 G2g||
|:f2d dcd|f2d dcd|fdd dcd|a^ga ba=g|
f2d dcd|f2d def|ged cde|gfg a2g:|
|:fed faf|gbg faf|fed faf|~a3 bag|
fed faf|gbg faf|ged cde|gfg a2g:|
|:fed edc|dcd AFA|DFA dAF|~A3 AFA|
~B3 =c2c|B=cB AFD|EDE =cAF|1 ~G3 G2g:|2 GAG GFG||
